!!!OTL: DIE DAENEN RUECKTEN EIN
!!!ARE: Europa, Mitteleuropa, Deutschland, Unter - Westerwald, Woelferlingen
!!!SCT: E0363
!!!YEM: Copyright 1995, estate of Helmut Schaffrath.
**kern
*ICvox
*Ivox
*M3/4
*k[f#]
*G:
{4d
=1
4b
4b
8a
8a
=2
2g}
{8g
8b
=3
4dd
4dd
4cc
=4
2b}
{8g
8b
=5
4dd
4dd
4dd
=6
4.dd
8b}
{4b
=7
4cc
4cc
4cc
=8
4.cc
8b}
{4a
=9
4dd
4dd
4dd
=10
2ee}
{8dd
8dd
=11
4ee
4cc
4dd
=12
2b}
{8g
8b
=13
4dd
4dd
4dd
=14
4.dd
8b}
{4b
=15
4cc
4cc
4cc
=16
4.cc
8b}
{4a
=17
4dd
4dd
4dd
=18
2ee}
{8dd
8dd
=19
4ee
4cc
4dd
=20
2b}
==
!!!AGN: historisches Lied, Schleswig Holsteinscher Krieg (1849)
!!!ONB: ESAC (Essen Associative Code) Database: ERK1
!!!AMT: simple triple
!!!AIN: vox
!!!EED: Helmut Schaffrath
!!!EEV: 1.0
*-
